X: 1
T:The Black Bear
M:C|
L:1/8
Q:80
C:
S:March
K:HP
|: A/2B/2|
{Gdc}d{gdc}d{g}f3/4d/4a3/4f/4|
{Gdc}d{gdc}d{g}f3/4d/4a3/4f/4|  !
{gef}eB{GdGe}B{gef}e3/4d/4|
{g}c/4d3/4{g}B/4{d}c3/4{g}A3/4B/4{g}c/4{d}A3/4{Gdc}d{gdc}d{g}f3/4d/4a3/4
f/4|
{Gdc}d{gdc}d{g}f3/4d/4a3/4f/4|  !
{g}e{GdG}e{g}e/4g3/4{fg}f3/4e/4|
{Gdc}d{g}f{Gdc}d:| |:
e|  !
{g}A{GdGe}A3/4B/4{Gdc}d{gdc}d3/4e/4|
{gf}g{fg}f3/4e/4{g}f/4a3/4f/4d3/4|
{g}A{GdGe}A3/4B/4{Gdc}d{gdc}d3/4e/4|  !
{gf}g{fg}f3/4e/4{g}f/4a3/4f/4d3/4a/4A3/4{g}A/2{e}A/2{g}c/4{d}A3/4{g}A/4{
d}A3/4|
{g}d/4B3/4{g}B/4{d}B3/4{g}e/4c3/4{g}c/4{d}c3/4|
{g}d3/4f/4{g}d3/4f/4{g}e3/4g/4{a}f3/4g/4|  !
a{GdG}a{g}a3/4g/4{a}f3/4e/4:|
